app/images/icons/money-flower-icon.svg

<?xml version="1.0" encoding="UTF-8" standalone="no"?>
<svg width="76px" height="76px" viewBox="0 0 76 76" version="1.1" xmlns="http://www.w3.org/2000/svg" xmlns:xlink="http://www.w3.org/1999/xlink" xmlns:sketch="http://www.bohemiancoding.com/sketch/ns">
    <!-- Generator: Sketch 3.1 (8751) - http://www.bohemiancoding.com/sketch -->
    <title>money-flower-icon</title>
    <desc>Created with Sketch.</desc>
    <defs></defs>
    <g id="Page-1" stroke="none" stroke-width="1" fill="none" fill-rule="evenodd" sketch:type="MSPage">
        <g id="money-flower-icon" sketch:type="MSLayerGroup" fill="#0A0B09">
            <path d="M69.2866667,43.0147333 C68.78,43.1160667 68.3746667,43.51 68.2733333,44.0154 C68.172,44.5208 68.4,45.0414 68.8306667,45.3327333 C70.8953333,46.6766667 71.706,49.2974 70.7686667,51.5647333 C69.9706667,53.4900667 68.1213333,54.7187333 66.044,54.7187333 C65.6893333,54.7187333 65.3346667,54.682 64.98,54.6174 C64.4733333,54.5034 63.954,54.7187333 63.6626667,55.1494 C63.384,55.5800667 63.384,56.1374 63.6753333,56.5680667 C65.0686667,58.596 64.8153333,61.332 63.08,63.0787333 C61.3826667,64.7773333 58.5453333,65.0306667 56.5693333,63.6753333 C56.1386667,63.3827333 55.5813333,63.3700667 55.1506667,63.6626667 C54.72,63.9527333 54.5046667,64.4708 54.6186667,64.9787333 C55.1253333,67.3854 53.846,69.8174 51.5786667,70.7674 C50.9453333,71.0207333 50.2866667,71.1474 49.6153333,71.1474 C47.88,71.1474 46.284,70.2860667 45.334,68.8306667 C45.0553333,68.3860667 44.5233333,68.1707333 44.0293333,68.2708 C43.51,68.3734 43.1173333,68.7787333 43.0286667,69.2854 C42.5726667,71.7047333 40.4573333,73.4654 38,73.4654 C35.5426667,73.4654 33.4273333,71.7047333 32.9713333,69.2854 C32.8826667,68.7787333 32.49,68.3734 31.9833333,68.2708 C31.8946667,68.2594 31.806,68.2467333 31.73,68.2467333 C31.312,68.2467333 30.9066667,68.4620667 30.666,68.8306667 C29.3486667,70.8446667 26.676,71.6933333 24.434,70.7674 C22.154,69.8174 20.8746667,67.3854 21.3813333,64.9787333 C21.4953333,64.4708 21.28,63.9527333 20.8493333,63.6626667 C20.4186667,63.3700667 19.8486667,63.3827333 19.4306667,63.6753333 C17.4546667,65.0306667 14.63,64.7773333 12.92,63.0787333 C11.1846667,61.332 10.9313333,58.596 12.3246667,56.5680667 C12.616,56.1374 12.616,55.5800667 12.3373333,55.1494 C12.046,54.7187333 11.5266667,54.5034 11.02,54.6174 C10.6653333,54.682 10.3106667,54.7187333 9.956,54.7187333 C7.87866667,54.7187333 6.02933333,53.4900667 5.23133333,51.5647333 C4.294,49.2974 5.10466667,46.6766667 7.16933333,45.3327333 C7.6,45.0414 7.828,44.5208 7.72666667,44.0154 C7.62533333,43.51 7.22,43.1160667 6.71333333,43.0147333 C4.294,42.5714 2.53333333,40.4560667 2.53333333,38 C2.53333333,35.5414 4.294,33.4273333 6.71333333,32.9700667 C7.22,32.8814 7.62533333,32.4773333 7.72666667,31.9694 C7.828,31.464 7.6,30.9446667 7.16933333,30.6647333 C5.10466667,29.3208 4.294,26.7000667 5.23133333,24.4200667 C6.02933333,22.5086667 7.87866667,21.2660667 9.956,21.2660667 C10.3106667,21.2660667 10.6653333,21.3028 11.02,21.3800667 C11.5266667,21.4940667 12.046,21.2787333 12.3373333,20.8480667 C12.616,20.4174 12.616,19.8474 12.3246667,19.4306667 C10.9313333,17.3900667 11.1846667,14.6528 12.92,12.9187333 C14.6173333,11.2214 17.4546667,10.9680667 19.4306667,12.3234 C19.8486667,12.6147333 20.4186667,12.6147333 20.8493333,12.3234 C21.28,12.046 21.4953333,11.514 21.3813333,11.0060667 C20.8746667,8.5994 22.154,6.1674 24.4213333,5.23006667 C26.676,4.29273333 29.3486667,5.1528 30.666,7.16806667 C30.9446667,7.6 31.464,7.828 31.9833333,7.714 C32.49,7.61266667 32.8826667,7.21873333 32.9713333,6.71206667 C33.4273333,4.29273333 35.5426667,2.53206667 38,2.53206667 C40.4573333,2.53206667 42.5726667,4.29273333 43.0286667,6.71206667 C43.1173333,7.21873333 43.51,7.62533333 44.0293333,7.714 C44.536,7.81406667 45.0553333,7.6 45.334,7.16806667 C46.6386667,5.1414 49.324,4.29273333 51.566,5.23006667 C53.846,6.1674 55.1253333,8.5994 54.6186667,11.0060667 C54.5046667,11.514 54.72,12.046 55.1506667,12.3234 C55.5813333,12.6147333 56.1386667,12.6147333 56.5693333,12.3234 C58.5453333,10.9680667 61.3826667,11.2214 63.08,12.9187333 C64.8153333,14.6528 65.0686667,17.3900667 63.6753333,19.4306667 C63.384,19.8474 63.384,20.4174 63.6626667,20.8480667 C63.954,21.2787333 64.4733333,21.4940667 64.98,21.3800667 C67.374,20.8734 69.844,22.1793333 70.7686667,24.4200667 C71.706,26.7000667 70.8953333,29.3208 68.8306667,30.6647333 C68.4,30.9446667 68.172,31.464 68.2733333,31.9694 C68.3746667,32.4887333 68.78,32.8814 69.2866667,32.9700667 C71.706,33.4273333 73.4666667,35.5414 73.4666667,38 C73.4666667,40.4560667 71.706,42.5714 69.2866667,43.0147333 L69.2866667,43.0147333 Z M76,38 C76,35.1107333 74.3786667,32.5394 71.934,31.2474 C73.6946667,29.108 74.214,26.1174 73.112,23.4586667 C72.01,20.8113333 69.578,19.0367333 66.7786667,18.7707333 C67.5766667,16.1234 66.918,13.1708 64.866,11.1327333 C63.4346667,9.68873333 61.5093333,8.892 59.47,8.892 C58.6973333,8.892 57.95,9.00473333 57.228,9.22006667 C56.962,6.4714 55.214,3.98873333 52.5413333,2.88673333 C49.9193333,1.7974 46.854,2.31673333 44.7513333,4.05206667 C43.4466667,1.60866667 40.888,0 38,0 C35.112,0 32.5533333,1.60866667 31.2486667,4.05206667 C29.146,2.31673333 26.0806667,1.7974 23.4586667,2.88673333 C20.786,3.98873333 19.038,6.4714 18.772,9.22006667 C18.05,9.00473333 17.3026667,8.892 16.53,8.892 C14.4906667,8.892 12.578,9.68873333 11.134,11.1327333 C9.09466667,13.1708 8.41066667,16.1234 9.234,18.7707333 C6.422,19.0367333 3.99,20.8227333 2.888,23.4586667 C1.786,26.1174 2.29266667,29.108 4.05333333,31.2474 C1.62133333,32.5394 0,35.1107333 0,38 C0,40.8867333 1.60866667,43.4454 4.05333333,44.7500667 C2.29266667,46.8793333 1.786,49.8674 2.888,52.5400667 C3.99,55.1747333 6.422,56.9607333 9.234,57.228 C8.42333333,59.8626667 9.09466667,62.8266667 11.134,64.8647333 C12.578,66.31 14.4906667,67.108 16.53,67.108 C17.3026667,67.108 18.05,66.9927333 18.772,66.7647333 C19.038,69.5273333 20.7986667,71.9960667 23.4586667,73.0980667 C26.068,74.1874 29.146,73.682 31.2486667,71.9327333 C32.5533333,74.3774 35.112,76 38,76 C40.888,76 43.4466667,74.3774 44.7513333,71.9327333 C46.854,73.682 49.9193333,74.1874 52.5413333,73.0980667 C55.214,71.9960667 56.962,69.5273333 57.228,66.7647333 C57.95,66.9927333 58.6973333,67.108 59.47,67.108 C61.5093333,67.108 63.422,66.31 64.866,64.8647333 C66.918,62.8266667 67.5893333,59.8626667 66.7786667,57.228 C69.578,56.9607333 72.01,55.1747333 73.112,52.5400667 C74.214,49.8674 73.7073333,46.8793333 71.9466667,44.7500667 C74.3786667,43.4454 76,40.8867333 76,38 L76,38 Z" id="Fill-2730" sketch:type="MSShapeGroup"></path>
            <path d="M40.5333333,22.8012667 C43.6113333,22.8012667 45.6,24.7886667 45.6,27.8666667 C45.6,28.5633333 46.17,29.1346 46.8666667,29.1346 C47.5633333,29.1346 48.1333333,28.5633333 48.1333333,27.8666667 C48.1333333,23.3953333 45.0046667,20.2666667 40.5333333,20.2666667 C36.062,20.2666667 32.9333333,23.3953333 32.9333333,27.8666667 L32.9333333,35.4666667 L26.6,35.4666667 C25.9033333,35.4666667 25.3333333,36.0366667 25.3333333,36.7346 C25.3333333,37.43 25.9033333,38.0012667 26.6,38.0012667 L32.9333333,38.0012667 L32.9333333,41.8012667 C32.9333333,46.0686667 30.9446667,50.6666667 26.6,50.6666667 C25.9033333,50.6666667 25.3333333,51.2366667 25.3333333,51.9346 C25.3333333,52.63 25.9033333,53.2012667 26.6,53.2012667 L46.8666667,53.2012667 C47.5633333,53.2012667 48.1333333,52.63 48.1333333,51.9346 C48.1333333,51.2366667 47.5633333,50.6666667 46.8666667,50.6666667 L32.452,50.6666667 C34.4913333,48.4373333 35.4666667,45.0426667 35.4666667,41.8012667 L35.4666667,38.0012667 L41.8,38.0012667 C42.4966667,38.0012667 43.0666667,37.43 43.0666667,36.7346 C43.0666667,36.0366667 42.4966667,35.4666667 41.8,35.4666667 L35.4666667,35.4666667 L35.4666667,27.8666667 C35.4666667,24.7886667 37.4553333,22.8012667 40.5333333,22.8012667" id="Fill-2731" sketch:type="MSShapeGroup"></path>
        </g>
    </g>
</svg>

<svg width="76" height="76" viewBox="0 0 76 76" xmlns="http://www.w3.org/2000/svg">
    <desc>
        Created with Sketch.
    </desc>
    <g fill="#0A0B09">
        <path d="M69.287 43.015c-.507.1-.912.495-1.014 1-.1.506.127 1.026.558 1.318 2.065 1.344 2.876 3.964 1.94 6.232-.8 1.925-2.65 3.154-4.726 3.154-.355 0-.71-.038-1.064-.103-.507-.114-1.026.102-1.317.532-.28.43-.28.987.012 1.418 1.394 2.028 1.14 4.764-.595 6.51-1.697 1.7-4.535 1.953-6.51.597-.43-.292-.99-.305-1.42-.012-.43.29-.645.808-.53 1.316.505 2.405-.774 4.837-3.04 5.787-.635.254-1.293.38-1.965.38-1.735 0-3.33-.86-4.28-2.316-.28-.444-.812-.66-1.306-.56-.52.103-.913.51-1 1.015-.457 2.42-2.573 4.18-5.03 4.18-2.457 0-4.573-1.76-5.03-4.18-.087-.506-.48-.912-.987-1.014-.088-.01-.177-.023-.253-.023-.418 0-.823.215-1.064.584-1.317 2.015-3.99 2.863-6.232 1.937-2.28-.95-3.56-3.382-3.053-5.788.115-.51-.1-1.027-.53-1.317-.43-.293-1-.28-1.42.012-1.975 1.356-4.8 1.102-6.51-.596-1.735-1.748-1.99-4.484-.595-6.512.29-.43.29-.988.012-1.42-.29-.43-.81-.645-1.317-.53-.355.064-.71.1-1.064.1-2.077 0-3.927-1.228-4.725-3.153-.936-2.268-.125-4.888 1.94-6.232.43-.292.658-.812.557-1.318-.102-.505-.507-.9-1.014-1-2.42-.444-4.18-2.56-4.18-5.015 0-2.46 1.76-4.573 4.18-5.03.507-.09.912-.493 1.014-1 .1-.506-.127-1.025-.558-1.305C5.104 29.32 4.293 26.7 5.23 24.42c.8-1.91 2.65-3.154 4.726-3.154.355 0 .71.037 1.064.114.507.114 1.026-.1 1.317-.532.28-.43.28-1-.012-1.417-1.394-2.04-1.14-4.777.595-6.51 1.697-1.7 4.535-1.952 6.51-.597.42.292.99.292 1.42 0 .43-.277.645-.81.53-1.317-.505-2.407.774-4.84 3.04-5.776 2.256-.937 4.93-.077 6.246 1.938.28.432.798.66 1.317.546.507-.1.9-.495.988-1.002.457-2.42 2.573-4.18 5.03-4.18 2.457 0 4.573 1.76 5.03 4.18.087.507.48.913 1 1.002.506.1 1.025-.114 1.304-.546 1.305-2.027 3.99-2.875 6.232-1.938 2.28.937 3.56 3.37 3.053 5.776-.115.508.1 1.04.53 1.317.43.292.99.292 1.42 0 1.975-1.355 4.813-1.102 6.51.596 1.735 1.733 1.99 4.47.595 6.51-.29.417-.29.987-.012 1.418.29.43.81.646 1.317.532 2.394-.507 4.864.8 5.79 3.04.936 2.28.125 4.9-1.94 6.245-.43.28-.658.8-.557 1.304.102.52.507.91 1.014 1 2.42.457 4.18 2.57 4.18 5.03 0 2.456-1.76 4.57-4.18 5.015zM76 38c0-2.89-1.62-5.46-4.066-6.753 1.76-2.14 2.28-5.13 1.178-7.788-1.102-2.65-3.534-4.423-6.333-4.69.797-2.647.138-5.6-1.914-7.637-1.43-1.444-3.357-2.24-5.396-2.24-.773 0-1.52.112-2.242.327-.266-2.75-2.014-5.23-4.687-6.333-2.62-1.09-5.686-.57-7.79 1.165C43.448 1.61 40.89 0 38 0s-5.447 1.61-6.75 4.052c-2.104-1.735-5.17-2.255-7.79-1.165C20.785 3.99 19.037 6.47 18.77 9.22c-.722-.215-1.47-.328-2.242-.328-2.04 0-3.952.797-5.396 2.24-2.04 2.04-2.723 4.99-1.9 7.64-2.812.265-5.244 2.05-6.346 4.687-1.102 2.657-.595 5.648 1.165 7.787C1.62 32.54 0 35.11 0 38c0 2.887 1.61 5.445 4.053 6.75-1.76 2.13-2.267 5.117-1.165 7.79 1.102 2.635 3.534 4.42 6.346 4.688-.81 2.635-.14 5.6 1.9 7.637 1.444 1.445 3.357 2.243 5.396 2.243.773 0 1.52-.115 2.242-.343.266 2.762 2.027 5.23 4.687 6.333 2.608 1.09 5.686.584 7.79-1.165C32.552 74.377 35.11 76 38 76s5.447-1.623 6.75-4.067c2.104 1.75 5.17 2.254 7.79 1.165 2.674-1.102 4.422-3.57 4.688-6.333.722.228 1.47.343 2.242.343 2.04 0 3.952-.798 5.396-2.243 2.052-2.038 2.723-5.002 1.913-7.637 2.798-.267 5.23-2.053 6.332-4.688 1.102-2.673.595-5.66-1.165-7.79C74.38 43.445 76 40.887 76 38z"/>
        <path d="M40.533 22.8c3.078 0 5.067 1.99 5.067 5.067 0 .696.57 1.268 1.267 1.268.696 0 1.266-.572 1.266-1.268 0-4.472-3.128-7.6-7.6-7.6-4.47 0-7.6 3.128-7.6 7.6v7.6H26.6c-.697 0-1.267.57-1.267 1.268 0 .695.57 1.266 1.267 1.266h6.333v3.8c0 4.27-1.988 8.867-6.333 8.867-.697 0-1.267.57-1.267 1.268 0 .695.57 1.266 1.267 1.266h20.267c.696 0 1.266-.57 1.266-1.265 0-.698-.57-1.268-1.266-1.268H32.452c2.04-2.23 3.015-5.624 3.015-8.866V38H41.8c.697 0 1.267-.57 1.267-1.265 0-.698-.57-1.268-1.267-1.268h-6.333v-7.6c0-3.078 1.988-5.066 5.066-5.066"/>
    </g>
</svg>
